svg/place_of_worship-11.svg

<?xml version="1.0" encoding="UTF-8" standalone="no"?>
<!-- Generator: Adobe Illustrator 19.2.1, SVG Export Plug-In . SVG Version: 6.00 Build 0)  -->

<svg
   xmlns:dc="http://purl.org/dc/elements/1.1/"
   xmlns:cc="http://creativecommons.org/ns#"
   xmlns:rdf="http://www.w3.org/1999/02/22-rdf-syntax-ns#"
   xmlns:svg="http://www.w3.org/2000/svg"
   xmlns="http://www.w3.org/2000/svg"
   xmlns:sodipodi="http://sodipodi.sourceforge.net/DTD/sodipodi-0.dtd"
   xmlns:inkscape="http://www.inkscape.org/namespaces/inkscape"
   version="1.1"
   id="svg4619"
   inkscape:version="0.91 r13725"
   sodipodi:docname="place_of_worship-11.svg"
   x="0px"
   y="0px"
   width="13"
   height="13"
   viewBox="0 0 13 13"
   xml:space="preserve"><metadata
     id="metadata8"><rdf:RDF><cc:Work
         rdf:about=""><dc:format>image/svg+xml</dc:format><dc:type
           rdf:resource="http://purl.org/dc/dcmitype/StillImage" /><dc:title></dc:title></cc:Work></rdf:RDF></metadata><defs
     id="defs6" /><sodipodi:namedview
     pagecolor="#ffffff"
     bordercolor="#666666"
     borderopacity="1"
     objecttolerance="10"
     gridtolerance="10"
     guidetolerance="10"
     inkscape:pageopacity="0"
     inkscape:pageshadow="2"
     inkscape:window-width="1920"
     inkscape:window-height="1016"
     id="namedview4"
     showgrid="false"
     fit-margin-top="0"
     fit-margin-left="0"
     fit-margin-right="0"
     fit-margin-bottom="0"
     inkscape:zoom="15.733333"
     inkscape:cx="-4.3728814"
     inkscape:cy="-5.5"
     inkscape:window-x="0"
     inkscape:window-y="27"
     inkscape:window-maximized="1"
     inkscape:current-layer="svg4619" /><path
     id="path9064"
     inkscape:connector-curvature="0"
     sodipodi:nodetypes="cccccccccccssccsscccccssccss"
     d="m 6.5,0 -2,2 0,2 4,0 0,-2 -2,-2 z M 4.5,4.5 3,6 10,6 8.5,4.5 l -4,0 z M 1,6.5 c -0.5523,0 -1,0.4477 -1,1 L 0,13 2,13 2,7.5 C 2,6.9477 1.5523,6.5 1,6.5 Z m 2,0 0,6.5 7,0 0,-6.5 -7,0 z m 9,0 c -0.5523,0 -1,0.4477 -1,1 l 0,5.5 2,0 0,-5.5 c 0,-0.5523 -0.4477,-1 -1,-1 z" /></svg>

<svg xmlns="http://www.w3.org/2000/svg" width="13" height="13">
    <path d="M6.5 0l-2 2v2h4V2l-2-2zm-2 4.5L3 6h7L8.5 4.5h-4zM1 6.5a1 1 0 0 0-1 1V13h2V7.5a1 1 0 0 0-1-1zm2 0V13h7V6.5H3zm9 0a1 1 0 0 0-1 1V13h2V7.5a1 1 0 0 0-1-1z"/>
</svg>
